X:1002
%%stretchlast 1
T:Snow In Summer
C:Joe Buchanan's Scottish Tome - Page 589.0
I:589 0
Z:Carl Allison
R:Waltz
L:1/4
M:3/4
K:D
W:Intro
%%vskip 0
"G"B3/2 c/4B/4 A/B/ | "Em"e3 | "D"A3/2 B/4A/4 ^G/A/| "D7"d3 | "Em"c>d c | "A7"B2 c | "D"d3- | d3 |
%%vskip 25
|:"D" F G>^G | "D7"A3 | "G"B A>F | D3 |
"D"D F A | "D7"d c B | "A7"c z G/G/ | "A7"F3 |
"A7"C E>G | "A7"B3 | "A"c>d c | "Em"B3 |
"A7"A>B A | E2 =F | "D"F3- | F3 !fine!|]
"D"F G>^G | "D7"A3 | "G"B A>F | "D"D3 |
d3/2 e/4d/4 c/d/ | "D7"A2 ^A | "G"B3- | B3 |
"G"B c/4B/4 ^A/B/ | "Em"e3 | "D"A3/2 B/4A/4 ^G/A/ | "D7"d3 |
"Em"c>d c | "A7"B2 c | "D"d3- | d2 ((3A/^G/A/) |
%%newpage
T:Snow In Summer (cont)
"G"B2 ((3A/^G/A/) | "D"F2 ((3A/^G/A/) | "A"C3- | C2 ((3A/^G/A/) |
"G"B2 ((3A/^G/A/) | "G"F2 ((3A/^G/A/) | "D"D3- | D3 | 
D F A | "D7"d c B | "A7"c z G/G/ | G3 |
"A7"C E G | c B c | "D"B z F/F/ | "D"F2 ((3A/^G/A/) |
"G"B2 ((3A/^G/A/) | "D"F2 ((3A/G/A/) | C3- | C2 ((3A/G/A/) |
"Em"B2 ((3A/G/A/) |  "A7"G2 ((3A/G/A/) | "D"D3- | "D"D3 |
"D"d3 e/4d/4 c/d/ | "D7"A2 ^A | "G"B3 | B A G |
"D"F2 A, | "A7"F2 E | "D"D3- | "D"D3 :|

